X:2
T:Kilty Town
M:4/4
L:1/8
C:Charlie Lennon
S:Frankie Gavin
K:G
A|BGG2 d2cA|BdcA BGG2|FDD2 cDD2|BDD2 cBA2|
BGG2 d2cA|BdcA BGG2|FAde f2eg|fdcA G3:|
d|g3a gBB2|eBfB eBB2|dega b2ag|eaab agef|
g2bg f2af|e3f edcB|c2ec B2dB|AGAB G3:|
